build/images/last-section/Vectorls-icon-12.svg

<svg width="56" height="79" viewBox="0 0 56 79" fill="none" xmlns="http://www.w3.org/2000/svg">
<path d="M14.5909 28.0466H2.00024L7.31324 76.8936H48.3226L53.9842 28.0466H14.5909ZM14.5909 28.0466L17.3636 76.8936M2.00024 23.1603C2.00024 23.1603 1.88405 19.3214 6.75342 17.5775C6.75342 17.5775 4.90496 8.27279 13.5663 9.78281C13.5663 9.78281 15.1824 0.71207 22.9248 5.59836C22.9248 5.59836 27.5459 -2.6589 33.0913 5.48137C33.0913 5.48137 40.9499 0.696133 42.6822 9.8998C42.6822 9.8998 51.3435 8.96933 48.4546 18.0401C48.4546 18.0401 54 19.4384 54 23.7398M14.3585 23.7399C14.3585 23.7399 16.9041 19.0875 20.3686 20.135M27.2977 13.5047C27.2977 13.5047 31.5756 12.1117 33.1917 17.1096M27.9948 28.0466L27.8786 76.8936M37.929 76.8936L39.1965 55.4928M39.1965 50.1439L40.7017 28.0466" stroke="#A15CE6" stroke-width="3" stroke-linecap="round" stroke-linejoin="round"/>
</svg>

<svg width="56" height="79" fill="none" xmlns="http://www.w3.org/2000/svg"><path d="M14.59 28.047H2l5.313 48.847h41.01l5.661-48.847H14.591zm0 0l2.774 48.847M2 23.16s-.116-3.839 4.753-5.582c0 0-1.848-9.305 6.813-7.795 0 0 1.616-9.07 9.359-4.185 0 0 4.62-8.257 10.166-.117 0 0 7.859-4.785 9.591 4.419 0 0 8.661-.93 5.773 8.14 0 0 5.545 1.398 5.545 5.7m-39.642 0s2.546-4.652 6.01-3.605m6.93-6.63s4.278-1.393 5.894 3.605m-5.197 10.937l-.116 48.847m10.05 0l1.267-21.401m0-5.35l1.506-22.096" stroke="#A15CE6" stroke-width="3" stroke-linecap="round" stroke-linejoin="round"/></svg>
